X: 41435
T: Two Castles
R: reel
M: 4/4
K: Gmajor
|:G~e3 d~e3|gedB ABGE|~A3B ABGE|~A3B dBBA|
G~e3 d~e3|gedB ABGE|ABdB dege|1 ~g3f edBA:|2 gaba gf (3Bcd||
|:e2gf ed (3Bcd|~e3g fede|d~A3 defe|d~A3 dgfg|
e2gf ed (3Bcd|e2gf efga|baag gffe|1 gffe dBAB:|2 gffe dBBA||
|:~G3B ~G3D|EGAB dBBA|~G3B ~G3A|Bdgf edBA|
~G3B ~G3D|EGAB dBBd|edBA BEEF|1 GABA GEDE:|2 GFED EFGA||

